X: 25884
T: Matt Peoples'
R: reel
M: 4/4
K: Edorian
|:E2 BE FEBE|FAdA FEDF|E2 BE FEBE|FEDE FE ~E2:|
eB ~B2 edBc|dF ~F2 B3 d|eB ~B2 edBA|FEDE FE ~E2|
eB ~B2 edBc|dF ~F2 B3 d|ecdB cABA|FEDE FEED|

